packages/react-icons/icons/chat.svg

<svg xmlns="http://www.w3.org/2000/svg" width="24" height="24"><path d="M20 2H4c-1.1 0-2 .9-2 2v18l4-4h14c1.1 0 2-.9 2-2V4c0-1.1-.9-2-2-2Zm0 14H5.17L4 17.17V4h16v12Z"/><path d="m12 15 1.57-3.43L17 10l-3.43-1.57L12 5l-1.57 3.43L7 10l3.43 1.57L12 15Z"/></svg>

<svg width="24" height="24" view-box="0 0 24 24" xmlns="http://www.w3.org/2000/svg">
  <path
    d="M20 2H4C2.9 2 2 2.9 2 4V22L6 18H20C21.1 18 22 17.1 22 16V4C22 2.9 21.1 2 20 2ZM20 16H5.17L4 17.17V4H20V16Z"
  />
  <path
    d="M12 15L13.57 11.57L17 10L13.57 8.43L12 5L10.43 8.43L7 10L10.43 11.57L12 15Z"
  />
</svg>
